wp-content/themes/KOOEN/assets/img/common/contact.svg

<svg fill="none" height="20" viewBox="0 0 82 20" width="82" xmlns="http://www.w3.org/2000/svg"><path d="m10.725 17.1c-.45.7-1.025 1.2667-1.725 1.7-.7.4167-1.55.625-2.55.625-.98333 0-1.86667-.2333-2.65-.7s-1.44167-1.1167-1.975-1.95-.941667-1.8083-1.225-2.925c-.283333-1.1333-.425-2.3667-.425-3.7 0-1.33333.141667-2.56667.425-3.7.3-1.13333.71667-2.10833 1.25-2.925.55-.83333 1.20833-1.48333 1.975-1.95.78333-.46667 1.65833-.700001 2.625-.700001.9 0 1.725.175001 2.475.525001s1.3667.88333 1.85 1.6l-1.4 1.525c-.36667-.53333-.79167-.925-1.275-1.175-.48333-.26667-1-.4-1.55-.4-.68333 0-1.275.19167-1.775.575s-.91667.9-1.25 1.55c-.31667.65-.55833 1.41667-.725 2.3-.16667.86667-.25 1.79167-.25 2.775 0 .9833.08333 1.9083.25 2.775s.41667 1.6333.75 2.3c.33333.65.75 1.1667 1.25 1.55.51667.3833 1.11667.575 1.8.575.61667 0 1.15833-.1667 1.625-.5.48333-.3333.86667-.7417 1.15-1.225zm13.4402-6.975c0 1.3833-.1416 2.65-.425 3.8-.2666 1.1333-.6666 2.1083-1.2 2.925-.5166.8167-1.15 1.45-1.9 1.9-.7333.45-1.575.675-2.525.675s-1.8-.225-2.55-.675-1.3916-1.0833-1.925-1.9c-.5166-.8167-.9166-1.7917-1.2-2.925-.2666-1.15-.4-2.4167-.4-3.8 0-1.38333.1334-2.64167.4-3.775.2667-1.15.6584-2.125 1.175-2.925.5167-.81667 1.15-1.44167 1.9-1.875.7667-.45 1.6334-.675001 2.6-.675001.95 0 1.7917.225001 2.525.675001.75.43333 1.3834 1.05833 1.9 1.875.5334.8.9334 1.775 1.2 2.925.2834 1.13333.425 2.39167.425 3.775zm-2.375 0c0-1-.0833-1.94167-.25-2.825-.15-.88333-.3833-1.65-.7-2.3-.3-.65-.6833-1.15833-1.15-1.525-.45-.38333-.975-.575-1.575-.575-.6166 0-1.1583.19167-1.625.575-.4666.36667-.8583.875-1.175 1.525-.3.65-.525 1.41667-.675 2.3s-.225 1.825-.225 2.825.075 1.9417.225 2.825.375 1.65.675 2.3c.3167.65.7084 1.1667 1.175 1.55.4667.3667 1.0084.55 1.625.55.6 0 1.125-.1833 1.575-.55.4667-.3833.85-.9 1.15-1.55.3167-.65.55-1.4167.7-2.3.1667-.8833.25-1.825.25-2.825zm13.3026 8.875-5.65-13.725h-.075v13.725h-2.075v-17.7h2.7l5.575 13.75h.075v-13.75h2.075v17.7zm10.181-15.775v15.775h-2.225v-15.775h-3.375v-1.925h8.975v1.925zm12.57 15.775-1-4.15h-5.125l-1.025 4.15h-2.275l4.45-17.7h2.975l4.35 17.7zm-3.475-15.6h-.1l-2.25 9.675h4.525zm17.6111 13.7c-.45.7-1.025 1.2667-1.725 1.7-.7.4167-1.55.625-2.55.625-.9834 0-1.8667-.2333-2.65-.7-.7834-.4667-1.4417-1.1167-1.975-1.95-.5334-.8333-.9417-1.8083-1.225-2.925-.2834-1.1333-.425-2.3667-.425-3.7 0-1.33333.1416-2.56667.425-3.7.3-1.13333.7166-2.10833 1.25-2.925.55-.83333 1.2083-1.48333 1.975-1.95.7833-.46667 1.6583-.700001 2.625-.700001.9 0 1.725.175001 2.475.525001s1.3667.88333 1.85 1.6l-1.4 1.525c-.3667-.53333-.7917-.925-1.275-1.175-.4834-.26667-1-.4-1.55-.4-.6834 0-1.275.19167-1.775.575s-.9167.9-1.25 1.55c-.3167.65-.5584 1.41667-.725 2.3-.1667.86667-.25 1.79167-.25 2.775 0 .9833.0833 1.9083.25 2.775.1666.8667.4166 1.6333.75 2.3.3333.65.75 1.1667 1.25 1.55.5166.3833 1.1166.575 1.8.575.6166 0 1.1583-.1667 1.625-.5.4833-.3333.8667-.7417 1.15-1.225zm5.8867-13.875v15.775h-2.225v-15.775h-3.375v-1.925h8.975v1.925z" fill="#fff"/></svg>

<svg width="82" height="20" viewBox="0 0 82 20" fill="none" xmlns="http://www.w3.org/2000/svg">
<path d="M10.725 17.1C10.275 17.8 9.7 18.3667 9 18.8C8.3 19.2167 7.45 19.425 6.45 19.425C5.46667 19.425 4.58333 19.1917 3.8 18.725C3.01667 18.2583 2.35833 17.6083 1.825 16.775C1.29167 15.9417 0.883333 14.9667 0.6 13.85C0.316667 12.7167 0.175 11.4833 0.175 10.15C0.175 8.81667 0.316667 7.58333 0.6 6.45C0.9 5.31667 1.31667 4.34167 1.85 3.525C2.4 2.69167 3.05833 2.04167 3.825 1.575C4.60833 1.10833 5.48333 0.874999 6.45 0.874999C7.35 0.874999 8.175 1.05 8.925 1.4C9.675 1.75 10.2917 2.28333 10.775 3L9.375 4.525C9.00833 3.99167 8.58333 3.6 8.1 3.35C7.61667 3.08333 7.1 2.95 6.55 2.95C5.86667 2.95 5.275 3.14167 4.775 3.525C4.275 3.90833 3.85833 4.425 3.525 5.075C3.20833 5.725 2.96667 6.49167 2.8 7.375C2.63333 8.24167 2.55 9.16667 2.55 10.15C2.55 11.1333 2.63333 12.0583 2.8 12.925C2.96667 13.7917 3.21667 14.5583 3.55 15.225C3.88333 15.875 4.3 16.3917 4.8 16.775C5.31667 17.1583 5.91667 17.35 6.6 17.35C7.21667 17.35 7.75833 17.1833 8.225 16.85C8.70833 16.5167 9.09167 16.1083 9.375 15.625L10.725 17.1ZM24.1652 10.125C24.1652 11.5083 24.0236 12.775 23.7402 13.925C23.4736 15.0583 23.0736 16.0333 22.5402 16.85C22.0236 17.6667 21.3902 18.3 20.6402 18.75C19.9069 19.2 19.0652 19.425 18.1152 19.425C17.1652 19.425 16.3152 19.2 15.5652 18.75C14.8152 18.3 14.1736 17.6667 13.6402 16.85C13.1236 16.0333 12.7236 15.0583 12.4402 13.925C12.1736 12.775 12.0402 11.5083 12.0402 10.125C12.0402 8.74167 12.1736 7.48333 12.4402 6.35C12.7069 5.2 13.0986 4.225 13.6152 3.425C14.1319 2.60833 14.7652 1.98333 15.5152 1.55C16.2819 1.1 17.1486 0.874999 18.1152 0.874999C19.0652 0.874999 19.9069 1.1 20.6402 1.55C21.3902 1.98333 22.0236 2.60833 22.5402 3.425C23.0736 4.225 23.4736 5.2 23.7402 6.35C24.0236 7.48333 24.1652 8.74167 24.1652 10.125ZM21.7902 10.125C21.7902 9.125 21.7069 8.18333 21.5402 7.3C21.3902 6.41667 21.1569 5.65 20.8402 5C20.5402 4.35 20.1569 3.84167 19.6902 3.475C19.2402 3.09167 18.7152 2.9 18.1152 2.9C17.4986 2.9 16.9569 3.09167 16.4902 3.475C16.0236 3.84167 15.6319 4.35 15.3152 5C15.0152 5.65 14.7902 6.41667 14.6402 7.3C14.4902 8.18333 14.4152 9.125 14.4152 10.125C14.4152 11.125 14.4902 12.0667 14.6402 12.95C14.7902 13.8333 15.0152 14.6 15.3152 15.25C15.6319 15.9 16.0236 16.4167 16.4902 16.8C16.9569 17.1667 17.4986 17.35 18.1152 17.35C18.7152 17.35 19.2402 17.1667 19.6902 16.8C20.1569 16.4167 20.5402 15.9 20.8402 15.25C21.1569 14.6 21.3902 13.8333 21.5402 12.95C21.7069 12.0667 21.7902 11.125 21.7902 10.125ZM35.0928 19L29.4428 5.275H29.3678V19H27.2928V1.3H29.9928L35.5678 15.05H35.6428V1.3H37.7178V19H35.0928ZM45.2738 3.225V19H43.0488V3.225H39.6738V1.3H48.6488V3.225H45.2738ZM57.8438 19L56.8438 14.85H51.7188L50.6938 19H48.4188L52.8688 1.3H55.8438L60.1938 19H57.8438ZM54.3688 3.4H54.2688L52.0188 13.075H56.5438L54.3688 3.4ZM71.9799 17.1C71.5299 17.8 70.9549 18.3667 70.2549 18.8C69.5549 19.2167 68.7049 19.425 67.7049 19.425C66.7215 19.425 65.8382 19.1917 65.0549 18.725C64.2715 18.2583 63.6132 17.6083 63.0799 16.775C62.5465 15.9417 62.1382 14.9667 61.8549 13.85C61.5715 12.7167 61.4299 11.4833 61.4299 10.15C61.4299 8.81667 61.5715 7.58333 61.8549 6.45C62.1549 5.31667 62.5715 4.34167 63.1049 3.525C63.6549 2.69167 64.3132 2.04167 65.0799 1.575C65.8632 1.10833 66.7382 0.874999 67.7049 0.874999C68.6049 0.874999 69.4299 1.05 70.1799 1.4C70.9299 1.75 71.5466 2.28333 72.0299 3L70.6299 4.525C70.2632 3.99167 69.8382 3.6 69.3549 3.35C68.8715 3.08333 68.3549 2.95 67.8049 2.95C67.1215 2.95 66.5299 3.14167 66.0299 3.525C65.5299 3.90833 65.1132 4.425 64.7799 5.075C64.4632 5.725 64.2215 6.49167 64.0549 7.375C63.8882 8.24167 63.8049 9.16667 63.8049 10.15C63.8049 11.1333 63.8882 12.0583 64.0549 12.925C64.2215 13.7917 64.4715 14.5583 64.8049 15.225C65.1382 15.875 65.5549 16.3917 66.0549 16.775C66.5715 17.1583 67.1715 17.35 67.8549 17.35C68.4715 17.35 69.0132 17.1833 69.4799 16.85C69.9632 16.5167 70.3466 16.1083 70.6299 15.625L71.9799 17.1ZM77.8666 3.225V19H75.6416V3.225H72.2666V1.3H81.2416V3.225H77.8666Z" fill="white"/>
</svg>
